svgs/thin/square-6.svg

<svg xmlns="http://www.w3.org/2000/svg" viewBox="0 0 448 512"><!-- Font Awesome Pro 6.0.0-alpha2 by @fontawesome - https://fontawesome.com License - https://fontawesome.com/license (Commercial License) --><path d="M224 192C219.453 192 215.104 192.727 210.723 193.342L269.281 142.031C272.594 139.094 272.938 134.063 270.031 130.719C268.438 128.938 266.219 128 264 128C262.125 128 260.25 128.656 258.719 129.969C258.719 129.969 159.561 217.27 159.346 217.51C140.213 235.07 128 260.043 128 288C128 340.938 171.062 384 224 384S320 340.938 320 288S276.938 192 224 192ZM224 368C179.875 368 144 332.125 144 288S179.875 208 224 208S304 243.875 304 288S268.125 368 224 368ZM384 32H64C28.654 32 0 60.654 0 96V416C0 451.346 28.654 480 64 480H384C419.346 480 448 451.346 448 416V96C448 60.654 419.346 32 384 32ZM432 416C432 442.467 410.467 464 384 464H64C37.533 464 16 442.467 16 416V96C16 69.533 37.533 48 64 48H384C410.467 48 432 69.533 432 96V416Z"/></svg>

<svg xmlns="http://www.w3.org/2000/svg" viewBox="0 0 448 512"><!--! Font Awesome Pro 6.3.0 by @fontawesome - https://fontawesome.com License - https://fontawesome.com/license (Commercial License) Copyright 2023 Fonticons, Inc. --><path d="M224 192C219.5 192 215.1 192.7 210.7 193.3l58.56-51.31c3.312-2.938 3.656-7.969 .75-11.31C268.4 128.9 266.2 128 264 128c-1.875 0-3.75 .6562-5.281 1.969c0 0-99.16 87.3-99.37 87.54C140.2 235.1 128 260 128 288c0 52.94 43.06 96 96 96s96-43.06 96-96S276.9 192 224 192zM224 368c-44.13 0-80-35.88-80-80S179.9 208 224 208s80 35.88 80 80S268.1 368 224 368zM384 32H64C28.65 32 0 60.65 0 96v320c0 35.35 28.65 64 64 64h320c35.35 0 64-28.65 64-64V96C448 60.65 419.3 32 384 32zM432 416c0 26.47-21.53 48-48 48H64c-26.47 0-48-21.53-48-48V96c0-26.47 21.53-48 48-48h320c26.47 0 48 21.53 48 48V416z"/></svg>
